X:1
T:Title
%%score { 1 | 2 }
L:1/8
Q:1/4=114
M:6/4
K:F
V:1 treble nm="Grand Piano"
V:2 bass 
V:1
 A2 A2 A2 C2 D2 F2 | A6 .A6 | [Ec]2 [EB]2 [A,FA]2 [B,EG]2 [DEB]2 [CEA]2 | [A,CF]12 | %4
w: Broughton~Edwards * * * * *||||
 [DB]2 [DB]2 [DB]2 [B,D]2 [DF]2 [FB]2 | A6 .F6 | G2 G2 G2 D2 E2 F2 | [EG]12 | A2 A2 A2 C2 D2 F2 | %9
w: |||||
 A6 .A6 | c2 A2 G2 F2 A2 c2 | d12 | G2 G2 A2 B2 c2 d2 | c6 .[C^FA]6 | %14
w: |||||
 [B,DB]2 [B,D]2 [B,DF]2 [G,CE]2 [A,CF]2 [B,EG]2 | [A,CF]12 |] %16
w: ||
V:2
 [F,CF]2 [F,CF]2 [F,CF]2 [F,A,]2 [F,B,]2 [F,B,^C]2 | [F,A,C]6 .[F,CF]6 | %2
 [C,C]2 [C,G,]2 C,2 C,2 C,2 C,2 | F,12 | [B,,F,]2 [B,,F,]2 [B,,F,]2 [B,,F,]2 [B,,B,]2 [D,B,]2 | %5
 [F,CF]6 .[A,C]6 | [G,CE]2 [G,CE]2 [G,CE]2 [G,=B,]2 [G,C]2 [G,B,D]2 | [C,C]12 | %8
 [F,CF]2 [F,CF]2 [F,CF]2 [F,A,]2 [F,B,]2 [F,B,^C]2 | [F,A,C]6 .[F,CF]6 | %10
 [F,A,_E]2 [F,CE]2[K:treble] [G,CE]2 [A,CE]2 [F,EF]2 [A,EF]2 | [B,DF]12 | %12
 [B,CE]2 [B,CE]2 [A,CE]2 [G,CE]2 [A,CE]2 [B,CE]2 | [A,CF]6[K:bass] .D,6 | %14
 G,2 G,2 G,,2 C,2 C,2 C,2 | F,12 |] %16

